64x64/apps/responder.svg

<svg height="64" width="64" xmlns="http://www.w3.org/2000/svg"><rect height="56" opacity=".2" rx="2.8" width="56" x="4" y="5"/><rect fill="#0190c5" height="56" rx="2.8" width="56" x="4" y="4"/><path d="m33 11s10 2 14 6c5 5 8 16 8 16v-19c0-1.662-1.338-3-3-3zm-23 3v28s9 0 15-7c4.328-5.05 11.56-13.988 13.021-15.795-10.017-5.2-28.021-5.205-28.021-5.205zm34.19 10.822c-1.98 2.004-10.073 10.238-14.19 15.178-5 6-5 15-5 15h27s-1.628-20.315-7.81-30.178z" opacity=".2"/><g fill="#f4f4f7"><path d="m33 10s10 2 14 6c5 5 8 16 8 16v-19c0-1.662-1.338-3-3-3zm-23 3v28s9 0 15-7c4.328-5.05 11.56-13.988 13.021-15.795-10.017-5.2-28.021-5.205-28.021-5.205zm34.19 10.822c-1.98 2.004-10.073 10.238-14.19 15.178-5 6-5 15-5 15h27s-1.628-20.315-7.81-30.178z"/><path d="m6.8 4c-1.55 0-2.8 1.25-2.8 2.8v1c0-1.55 1.25-2.8 2.8-2.8h50.4c1.55 0 2.8 1.25 2.8 2.8v-1c0-1.55-1.25-2.8-2.8-2.8z" opacity=".2"/></g></svg>

<svg width="64" height="64" xmlns="http://www.w3.org/2000/svg"><rect x="4" y="5" width="56" height="56" rx="2.8" ry="2.8" style="opacity:.2"/><rect x="4" y="4" width="56" height="56" rx="2.8" ry="2.8" style="fill:#0190c5"/><path d="M33 11s10 2 14 6c5 5 8 16 8 16V14c0-1.662-1.338-3-3-3zm-23 3v28s9 0 15-7c4.328-5.05 11.56-13.988 13.021-15.795C28.004 14.005 10 14 10 14zm34.19 10.822C42.21 26.826 34.117 35.06 30 40c-5 6-5 15-5 15h27s-1.628-20.315-7.81-30.178z" style="opacity:.2"/><path d="M33 10s10 2 14 6c5 5 8 16 8 16V13c0-1.662-1.338-3-3-3H33zm-23 3v28s9 0 15-7c4.328-5.05 11.56-13.988 13.021-15.795C28.004 13.005 10 13 10 13zm34.19 10.822C42.21 25.826 34.117 34.06 30 39c-5 6-5 15-5 15h27s-1.628-20.315-7.81-30.178z" style="fill:#f4f4f7"/><path d="M6.8 4C5.25 4 4 5.25 4 6.8v1C4 6.25 5.25 5 6.8 5h50.4C58.75 5 60 6.25 60 7.8v-1C60 5.25 58.75 4 57.2 4H6.8z" style="fill:#f4f4f7;opacity:.2"/></svg>
